X:1
T:Title
%%score { ( 1 2 6 ) | ( 3 4 5 ) }
L:1/8
Q:1/4=88
M:2/4
K:D
V:1 treble nm="Grand Piano"
V:2 treble 
V:6 treble 
V:3 bass 
V:4 bass 
V:5 bass 
V:1
 D2 z2 | D2 z2 | G2 z2 | d4 | =c2 z2 | z2 A2 | G2 z2 | F2 z2 | D2 z2 | D2 z2 | G2 z2 | e2 d2 | %12
w: A.~Rubinstein||||||||||||
 =c2 z2 | B2 A2 | G4- | G2 z2 | F2 [=Fc][FB] | [EA]2 [CE][DF] | [EG][FA] [GB][Gc] | [Fd]2 D2 | %20
w: ||||||||
 FA [=Fc][FB] | [EA]2 [CE][DF] | [EG][FA] [GB][Gc] | [Fd]2 D2 | d2 z2 | d2 z2 | z2 =f^d | d4 | %28
w: ||||||||
 D2 =F^D | D2 =F^D | D2 =F^D |[M:5/8][K:bass] D-D- D3 |[M:2/4] D2[K:treble] z2 | D2 z2 | G2 z2 | %35
w: |||||||
 d4 | =c2 z2 | z2 A2 | G2 z2 | F2 z2 | D2 z2 | D2 z2 | G2 z2 | e2 d2 | =c2 z2 | B2 A2 | G4- | %47
w: ||||||||||||
[M:6/4] G6 z6 |] %48
w: |
V:2
 z A, CD | z =C ^CD | z D FG | z =F z F | z E BA | BF z F | z D FE | z =C ED | z B, CD | z =C ^CD | %10
 z D FG | z ^G z G | z E ^GA | z F z F | z D C=C | B,2 z2 | x4 | x4 | x4 | x4 | x4 | x4 | x4 | x4 | %24
 z2 ^Ac | z2 ^Ac | d2 z2 | z D2 D | x4 | x4 | x4 |[M:5/8][K:bass] z2 [F,A,C]3 | %32
[M:2/4] z A,[K:treble] CD | z =C ^CD | z D FG | z =F z F | z E BA | BF z F | z D FE | z =C ED | %40
 z B, CD | z =C ^CD | z D FG | z ^G z G | z E ^GA | z F z F | z D C=C |[M:6/4] .B,6 z6 |] %48
V:3
 z D,2 [D,G,B,] | z F, z [D,F,=C] | z B, z [D,B,D] | z D z D | z =C z [C^D] | z =C z [A,C] | %6
 z B, z ^A, | z F, z [F,=C] | z G, z2 | z F, z2 | z B, z [D,B,D] | z E z E | z =C z [C^D] | %13
 z =C z C | z =F, E,^D, | D,2 z2 | [D,A,D]2 [D,^G,][D,G,] | [C,A,]2 [A,,A,][A,,A,] | %18
 [A,,A,]2 [A,,A,][A,,A,] | [D,A,]2 [D,F,]2 | DF [D,^G,][D,G,] | [C,A,]2 [A,,A,][A,,A,] | %22
 [A,,A,]2 [A,,A,][A,,A,] | [D,A,]2 [D,F,]2 | z ^A,2 [A,D] | z ^A,2 [A,D] | z ^A,2 [A,D] | %27
 D, [F,A,]2 D, | D,2 =F,^D, | D,2 =F,^D, | D,2 =F,^D, |[M:5/8] D,-D,- D,3 |[M:2/4] z D,2 [D,G,B,] | %33
 z F, z [D,F,=C] | z B, z [D,B,D] | z D z D | z =C z [C^D] | z =C z [A,C] | z B, z ^A, | %39
 z F, z [F,=C] | z G, z2 | z F, z2 | z B, z [D,B,D] | z E z E | z =C z [C^D] | z =C z C | %46
 z =F, E,^D, |[M:6/4] .D,6 z6 |] %48
V:4
 G,,4 | z .D,3 | z .D,3 | ^G,,2 ^G,2 | A,,2 A,2 | z .A,3 | G,,2 C,2 | D,2 D,,2 | z D,2 [D,B,] | %9
 z D,2 [D,F,B,] | z .D,3 | E,,2 E,2 | A,,2 A,2 | D,2 D,,2 | G,,4- | G,,2 z2 | x4 | x4 | x4 | x4 | %20
 [D,A,]2 z2 | x4 | x4 | x4 | G,4 | G,4 | G,4 | x4 | x4 | x4 | x4 |[M:5/8] z2 D,,3 |[M:2/4] G,,4 | %33
 z .D,3 | z .D,3 | ^G,,2 ^G,2 | A,,2 A,2 | z .A,3 | G,,2 C,2 | D,2 D,,2 | z D,2 [D,B,] | %41
 z D,2 [D,F,B,] | z .D,3 | E,,2 E,2 | A,,2 A,2 | D,2 D,,2 | G,,4- |[M:6/4] G,,6 z6 |] %48
V:5
 x4 | A,,4 | B,,4 | x4 | x4 | D,4 | x4 | x4 | G,,4 | A,,4 | B,,4 | x4 | x4 | x4 | x4 | x4 | x4 | %17
 x4 | x4 | x4 | x4 | x4 | x4 | x4 | x4 | x4 | x4 | x4 | x4 | x4 | x4 |[M:5/8] x5 |[M:2/4] x4 | %33
 A,,4 | B,,4 | x4 | x4 | D,4 | x4 | x4 | G,,4 | A,,4 | B,,4 | x4 | x4 | x4 | x4 |[M:6/4] x12 |] %48
V:6
 x4 | x4 | x4 | x4 | x4 | x4 | x4 | x4 | x4 | x4 | x4 | x4 | x4 | x4 | x4 | x4 | x4 | x4 | x4 | %19
 x4 | x4 | x4 | x4 | x4 | z .D3 | z .D3 | z .D3 | x4 | x4 | x4 | x4 |[M:5/8][K:bass] x5 | %32
[M:2/4] x2[K:treble] x2 | x4 | x4 | x4 | x4 | x4 | x4 | x4 | x4 | x4 | x4 | x4 | x4 | x4 | x4 | %47
[M:6/4] x12 |] %48

